X:1
T:Indian Ate A WoodChuck
C:Greg Canote
L:1/8
M:4/4
I:linebreak $
K:C
V:1 treble
V:1
 cA |: "C"GFED CDEG |"F" A2 dc d2 cA | "C"GFED CDEG | "G"AGAB"C" c2 cA |$
 "C"GFED CDEG | "F"A2 dc d2 cA |  "C"GFED CDEG | "G"A2 B2 "C"c4 ::$
 "C"edeg a2 g2 | "G"e2 d2 d2 e2- | "C"edeg a2 g2 | "G"eged "C"c2 cd |$
 "C"edeg a2 g2 |  "G"e2 d2 d4 | "F"a2 a2 abag | "G"eged "C"c4 :|
